X: 1267
T: Koyundere Zeybeği
C: (Anonim)
O: Turkey
F: http://compmusic.upf.edu/node/140
N: karcigar--zeybek--oynak----
N: makam= karcigar
N: form= zeybek
N: usul= oynak = 9/8
M: 9/8
L: 1/16
K: C _2/4B _3/4e ^3/4f 
Q: 1/4=90
%%MIDI tuningsystem comma53
cBA2B2c2 d2e2d2ef edc2dedc B2c2d8 | \
w:   | 
cBA2 B2c2d2e2 d2efedc2 cBA2B2G2 A8  | 
w:   | 
cBA2B2c2 d2e2d2ef edc2dedc B2c2d8 | \
w:   | 
cBA2 B2c2d2e2 d2efedc2 cBA2B2G2 A8  | 
w:   | 
f2gagfef edc2dedc B2A2BcBA B2c2d8 | 
w:   | 
f2ga gfefedc2 d2efedc2 cBA2B2G2 A8  | 
w:   | 
f2gagfef edc2dedc B2A2BcBA B2c2d8 | 
w:   | 
f2ga gfefedc2 d2efedc2 cBA2B2G2 A8  | 
w:   | 
=e4A4 e4eA3 eA3eA3 B2c2d8 | =e4 A4e4 d2_3/4efedc2 c2A2B2G2 A8  | 
w:   |   | 
=e4A4 e4eA3 eA3eA3 B2c2d8 | =e4 A4e4 d2_3/4efedc2 c2A2B2G2 A8  | 
w:   |   | 
|


